img/recomendation/9.svg

<svg width="44" height="44" viewBox="0 0 44 44" fill="none" xmlns="http://www.w3.org/2000/svg">
<g id="healthicons:factory-worker">
<g id="Group">
<path id="Vector" d="M14.0424 12.1138C14.6685 10.1411 16.2516 8.50942 18.3333 7.61567V10.0833C18.3333 10.3264 18.4299 10.5596 18.6018 10.7315C18.7737 10.9034 19.0069 11 19.25 11C19.4931 11 19.7263 10.9034 19.8982 10.7315C20.0701 10.5596 20.1667 10.3264 20.1667 10.0833V6.41667C20.1667 6.17355 20.2632 5.94039 20.4351 5.76849C20.6071 5.59658 20.8402 5.5 21.0833 5.5H22.9167C23.1598 5.5 23.3929 5.59658 23.5648 5.76849C23.7368 5.94039 23.8333 6.17355 23.8333 6.41667V10.0833C23.8333 10.3264 23.9299 10.5596 24.1018 10.7315C24.2737 10.9034 24.5069 11 24.75 11C24.9931 11 25.2263 10.9034 25.3982 10.7315C25.5701 10.5596 25.6667 10.3264 25.6667 10.0833V7.61567C27.7787 8.52225 29.3764 10.1869 29.9842 12.1981C29.7486 12.3888 29.3553 12.6198 28.7421 12.8434C27.3744 13.3421 25.08 13.75 21.5178 13.75C18.9521 13.75 16.8905 13.3503 15.499 12.8425C14.828 12.5978 14.3458 12.3393 14.0424 12.1138Z" fill="#13023E"/>
<path id="Vector_2" fill-rule="evenodd" clip-rule="evenodd" d="M29.37 14.5658C30.1813 14.2688 30.8211 13.9132 31.2757 13.5043C31.7955 14.0021 32.0833 14.5493 32.0833 15.125C32.0833 16.2232 31.0347 17.2214 29.3242 17.9603C29.3738 18.9529 29.2212 19.9453 28.8756 20.8771C28.5299 21.809 27.9985 22.6609 27.3135 23.381C26.6285 24.1011 25.8042 24.6745 24.8908 25.0663C23.9774 25.4581 22.9939 25.6601 22 25.6601C21.0061 25.6601 20.0226 25.4581 19.1092 25.0663C18.1958 24.6745 17.3715 24.1011 16.6865 23.381C16.0015 22.6609 15.4701 21.809 15.1244 20.8771C14.7788 19.9453 14.6262 18.9529 14.6758 17.9603C12.9653 17.2214 11.9167 16.2232 11.9167 15.125C11.9167 14.5292 12.2247 13.9636 12.7793 13.453L12.8828 13.5355C13.3815 13.9214 14.0635 14.2707 14.872 14.5649C16.4954 15.158 18.7761 15.5833 21.5178 15.5833C25.1918 15.5833 27.7228 15.1663 29.37 14.5658ZM16.5055 18.5845C16.5688 19.9992 17.1754 21.335 18.1988 22.3137C19.2223 23.2924 20.5839 23.8386 22 23.8386C23.4161 23.8386 24.7777 23.2924 25.8012 22.3137C26.8246 21.335 27.4312 19.9992 27.4945 18.5845C25.9142 19.0062 24.0258 19.25 22 19.25C19.9742 19.25 18.0858 19.0053 16.5055 18.5845ZM5.5 38.5H24.75V27.9583L22.9167 29.3333V32.9056C22.6162 32.9748 22.3083 33.0066 22 33C21.5646 33 21.2713 32.9542 21.0833 32.9056V29.5368L16.8236 26.224C11.4767 27.2507 5.5 29.6432 5.5 33V38.5ZM11.9167 36.6667H19.25V32.2483L13.2688 33.2457L14.9884 28.5175C13.9466 28.7854 12.921 29.1129 11.9167 29.4983V36.6667ZM7.33333 36.6667H10.0833V30.3224L10.0155 30.3582C9.04017 30.8752 8.327 31.4023 7.87783 31.8982C7.43783 32.3858 7.33333 32.7461 7.33333 33V36.6667Z" fill="#13023E"/>
<path id="Vector_3" d="M29.8558 23.5125C30.3857 22.9717 31.1208 23.5171 30.9595 24.2568L30.9357 24.365C30.8532 24.742 30.8564 25.1327 30.9448 25.5084C31.0333 25.8841 31.2048 26.2351 31.4468 26.5357C31.6889 26.8364 31.9952 27.0789 32.3433 27.2456C32.6914 27.4123 33.0724 27.4988 33.4583 27.4988C33.8443 27.4988 34.2253 27.4123 34.5734 27.2456C34.9215 27.0789 35.2278 26.8364 35.4698 26.5357C35.7118 26.2351 35.8834 25.8841 35.9718 25.5084C36.0603 25.1327 36.0634 24.742 35.981 24.365L35.9572 24.2568C35.7958 23.5171 36.531 22.9726 37.0608 23.5134C37.9849 24.4547 38.5018 25.7217 38.5 27.0407C38.5005 27.8957 38.2835 28.7368 37.8693 29.4847C37.455 30.2327 36.8573 30.8629 36.1322 31.3161C35.8765 31.4756 35.75 31.7817 35.75 32.0833V36.6667C35.75 37.1529 35.5568 37.6192 35.213 37.963C34.8692 38.3068 34.4029 38.5 33.9167 38.5H33C32.5138 38.5 32.0475 38.3068 31.7036 37.963C31.3598 37.6192 31.1667 37.1529 31.1667 36.6667V32.0833C31.1667 31.7817 31.0402 31.4756 30.7844 31.3161C30.0593 30.8628 29.4614 30.2325 29.0472 29.4843C28.633 28.7362 28.416 27.895 28.4167 27.0398C28.4167 25.6667 28.9657 24.4209 29.8558 23.5125Z" fill="#13023E"/>
</g>
</g>
</svg>

<svg width="44" height="44" viewBox="0 0 44 44" fill="none" xmlns="http://www.w3.org/2000/svg"><g id="healthicons:factory-worker"><g id="Group" fill="#13023E"><path id="Vector" d="M14.042 12.114c.627-1.973 2.21-3.605 4.291-4.498v2.467a.917.917 0 001.834 0V6.417a.917.917 0 01.916-.917h1.834a.916.916 0 01.916.917v3.666a.917.917 0 001.834 0V7.616c2.112.906 3.71 2.57 4.317 4.582-.235.19-.629.422-1.242.645-1.368.5-3.662.907-7.224.907-2.566 0-4.628-.4-6.019-.908-.671-.244-1.153-.503-1.457-.728z"/><path id="Vector_2" fill-rule="evenodd" clip-rule="evenodd" d="M29.37 14.566c.811-.297 1.451-.653 1.906-1.062.52.498.807 1.045.807 1.621 0 1.098-1.048 2.096-2.759 2.835a7.335 7.335 0 01-10.215 7.106 7.334 7.334 0 01-4.433-7.106c-1.71-.739-2.76-1.737-2.76-2.835 0-.596.309-1.161.863-1.672l.104.083c.499.385 1.18.735 1.989 1.029 1.623.593 3.904 1.018 6.646 1.018 3.674 0 6.205-.417 7.852-1.017zm-12.864 4.018a5.5 5.5 0 0010.988 0c-1.58.422-3.468.666-5.494.666s-3.914-.245-5.494-.666zM5.5 38.5h19.25V27.958l-1.833 1.375v3.573c-.3.069-.609.1-.917.094-.435 0-.729-.046-.917-.094v-3.37l-4.26-3.312C11.478 27.251 5.5 29.644 5.5 33v5.5zm6.417-1.833h7.333v-4.419l-5.981.998 1.72-4.729a28.123 28.123 0 00-3.072.981v7.169zm-4.584 0h2.75v-6.345l-.068.036c-.975.517-1.688 1.044-2.137 1.54-.44.488-.545.848-.545 1.102v3.667z"/><path id="Vector_3" d="M29.856 23.512c.53-.54 1.265.005 1.103.745l-.023.108a2.582 2.582 0 105.045 0l-.024-.108c-.161-.74.574-1.284 1.104-.744a5.025 5.025 0 011.439 3.528 5.039 5.039 0 01-2.368 4.275c-.255.16-.382.466-.382.767v4.584a1.833 1.833 0 01-1.833 1.833H33a1.834 1.834 0 01-1.833-1.833v-4.584c0-.301-.127-.607-.383-.767a5.038 5.038 0 01-2.367-4.276c0-1.373.549-2.62 1.439-3.527z"/></g></g></svg>
